!!!COM: Bach, Johann Sebastian
!!!OTL: Hilf, Herr Jesu, lass gelingen
!!!ONM: No. 368
!!!OCL: Erk
!!!YOE: Riemenschneider, Albert
!!!OPR: 371 Harmonized Chorales and 69 Chorale Melodies with Figured Bass
!!!OPT: Bach Chorale Harmonizations
**kern	**kern	**kern	**kern
! bass	! tenor	! alto	! soprano
*M3/4	*M3/4	*M3/4	*M3/4
*F:	*F:	*F:	*F:
=1	=1	=1	=1
8F	4f	4a	4cc
8G	.	.	.
4A	2c	2f	2a
4F	.	.	.
=2	=2	=2	=2
2C	4.c	4f	2g
.	.	4e	.
.	8B-	.	.
4D	4A	4f	4f
=3	=3	=3	=3
8G	2B-	4d	4b-
8F	.	.	.
4E-	.	4g	4.cc
4F	8A	4f	.
.	16B-	.	16dd
.	16c	.	16ee
=4	=4	=4	=4
8BB-	4c	2.f	2.dd
8C	.	.	.
4D	8B-	.	.
.	8A	.	.
4BB-	4B-	.	.
=5	=5	=5	=5
2.F;	2.A;	2.f;	2.cc;
=6	=6	=6	=6
4D	4f	4a	4dd
4G	2d	2g	2b-
4F	.	.	.
=7	=7	=7	=7
4E	8c	4g	2cc
.	8B-	.	.
8F	4A	4f	.
8E	.	.	.
8D	4A	4f	4f
8C	.	.	.
=8	=8	=8	=8
8D	8d	8f	4b-
8E	8c	8g	.
4F	2c	4g	2a
4F	.	4f	.
=9	=9	=9	=9
2.C;	2.c;	2.e;	2.g;
!! Repeat from the beginning.
=1	=1	=1	=1
8F	4f	4a	4cc
8G	.	.	.
4A	2c	2f	2a
4F	.	.	.
=2	=2	=2	=2
2C	4.c	4f	2g
.	.	4e	.
.	8B-	.	.
4D	4A	4f	4f
=3	=3	=3	=3
8G	2B-	4d	4b-
8F	.	.	.
4E-	.	4g	4.cc
4F	8A	4f	.
.	16B-	.	16dd
.	16c	.	16ee
=4	=4	=4	=4
8BB-	4c	2.f	2.dd
8C	.	.	.
4D	8B-	.	.
.	8A	.	.
4BB-	4B-	.	.
=5	=5	=5	=5
2.F;	2.A;	2.f;	2.cc;
=6	=6	=6	=6
4D	4f	4a	4dd
4G	2d	2g	2b-
4F	.	.	.
=7	=7	=7	=7
4E	8c	4g	2cc
.	8B-	.	.
8F	4A	4f	.
8E	.	.	.
8D	4A	4f	4f
8C	.	.	.
=8	=8	=8	=8
8D	8d	8f	4b-
8E	8c	8g	.
4F	2c	4g	2a
4F	.	4f	.
=9	=9	=9	=9
2.C;	2.c;	2.e;	2.g;
!! Continuing.
=10	=10	=10	=10
8C	2c	8g	4ee
8D	.	8f	.
4E	.	4g	2cc
4C	4e	4g	.
=11	=11	=11	=11
8F	2c	4g	2a
8E	.	.	.
4F	.	4f	.
4B-	[4B-	4f	4dd
=12	=12	=12	=12
4E	4B-]	4g	4cc#
4F	4A	4a	4.dd
4D	8d	8b-	.
.	8c	8a	16ee
.	.	.	16ff
=13	=13	=13	=13
4D	4B-	8g	2.ee
.	.	8f	.
8C#	8A	4.g	.
8BBn	8G	.	.
4C#	4A	.	.
.	.	8e	.
=14	=14	=14	=14
2.D;	2.A;	2.f;	2.a;
=15	=15	=15	=15
8B-	4.B-	4f	4dd
8A	.	.	.
4G	.	4g	4ee
.	8G	.	.
4F	4c	4a	4ff
=16	=16	=16	=16
8E	2c	8g	4gg
8D	.	8f	.
4E	.	4g	4cc
4C	4G	4e	4b-
=17	=17	=17	=17
4F	2F	4c	4a
2BB-	.	4B-	4d
.	4d	4f	4b-
=18	=18	=18	=18
8C	4G	4f	2.g
8BB-	.	.	.
2C	4c	8e	.
.	.	8d	.
.	4B-	4e	.
=19	=19	=19	=19
2.FF;	2.A;	2.c;	2.f;
==	==	==	==
*-	*-	*-	*-
!!!CDT: 1685/3//-1750/7/28
!!!OCY: Deutschland
!!!AGN: chorale
!!!AST: Baroque
!!!AIN: vox
!!!YOY: 1941
!!!PPP: New York; London
!!!PPR: G. Schirmer
!!!ENC: David Huron
!!!EED: David Huron
!!!YEN: United States of America
!!!YER: 1992
!!!YEC: Copyright 1992 David Huron
!!!YEM: Rights to all derivative electronic formats reserved.
!!!YER: March 20, 1996
!!!AMT: simple quadruple
!!!EEV: 1.1
